X:1     %Music
T:Good News
B:Ian Russell,A Festival of Village Carols - Sixteen Carols from the Mount-Dawson Manuscripts, Sheffield, 1994
C: Arr. Ian Russell, http://www.sgpublishing.co.uk/gm/vc/vcabout.html
Z:Ian Russell
Q:1/4=128     %Tempo
V:1  clef=treble name="Soprano"
M:4/4     %Meter
L:1/8     %
K:A
A4 E3 F |(E3DC2) A2 |A4 G4 |A6 c2 |
w:Hark, Hark! What news__ those an-gels bring? Glad 
(B3AG2) F2 |G6 c2 |(B3AF2) F2 |G6 G2 |
w:tid-**ings of a new__ born King, Glad 
A6 B2 |c6 B2 |A4 G4 |A8 |
w:tid ings of a new born King; 
E4 F2 G2 |A4 z4 |F4 G2 A2 |B4 z4 |
w:Born of a maid, a vir-gin pure, 
G4 A2 B2 |c4 z4 |A4 B2 c2 |(d8|
w:Born with-out sin, from guilt se-cure 
c6) B2 |A4 (G2F2) |(E3DC2) A2 |A4 G4 |A8 |]
w: Born with-out_ sin__ from guilt se-cure 
V:2    clef=treble name="Alto"
M:4/4     %Meter
L:1/8     %
K:A
C4 C3 D |(C3B,A,2) D2 |C4 B,4 |C6 E2 |
w:Hark, Hark! What news__ those an-gels bring? Glad 
E6 ^D2 |E6 E2 |E6 ^D2 |E6 B,2 |
w:tid-ings of a new born King, Glad 
C6 E2 |E6 D2 |C4 B,4 |C8 |
w:tid-ings of a new borm King; 
z8 |C4 D2 E2 |F4 z4 |D4 E2 F2 |
w:Born of a maid, a vir-gin 
G4 z4 |A,4 B,2 C2 |D4 z4 |F4 F2 F2 |
w:pure, Born with-out sin from guilt se-
E6 D2 |(C3D) (E2B,2) |C6 D2 |C4 B,4 |C8 |]
w:cure, Born with_ out_ sin from guilt se-cure. 
V:3    clef=bass name="Tenor"
M:4/4     %Meter
L:1/8     %
K:A
E,4 A,3 A, |(A,4E,2) F,2 |E,4 E,4 |E,6 A,2 |
w:Hark, Hark! What news_ those an-gels bring? Glad 
(G,3A,B,2) B,2 |B,6 A,2 |(G,3A,B,2) B,2 |B,6 E,2 |
w:tid-**ings of a new__ born King, Glad 
E,6 G,2 |A,6 F,2 |E,4 E,4 |E,8 |
w:tid-ings of a new born King; 
G,4 A,2 B,2 |C4 z4 |A,4 B,2 C2 |D4 z4 |
w:Born of a maid, a vir-gin pure, 
C,4 F,2 G,2 |A,4 z4 |F,4 G,2 A,2 |A,8 |
w:Born with-out sin, from guilt se-cure 
A,6 G,2 |A,4 B,4 |A,6 F,2 |E,4 E,4 |E,8 |]
w: Born with-out sin from guilt se-cure. 
V:4     clef=bass name="Bass"
M:4/4     %Meter
L:1/8     %
K:A
A,,4 A,,3 A,, |(A,,3B,,C,2) D,2 |E,4 E,,4 |A,,6 A,2 |
w:Hark, Hark! What news__ those an-gels bring? Glad 
(G,3F,E,2) B,,2 |(E,3F,G,2) A,2 |(G,3F,E,2) B,,2 |(E,2D,2C,2) B,,2 |
w:tid-**ings of__ a new__ born King,__ Glad 
(A,,3B,,C,2) E,2 |A,6 D,2 |E,4 E,,4 |A,,8 |
w:tid-**ings of a new born King; 
z8 |A,,4 B,,2 C,2 |D,4 z4 |B,,4 C,2 D,2 |
w:Born of a maid, a vir-gin 
E,4 z4 |C,4 D,2 E,2 |F,4 z4 |D,4 (D,E,) (F,G,) |
w:pure, Born with-out sin from guilt_ se-*
A,6 E,2 |F,4 (E,2D,2) |(C,3B,,A,,2) D,2 |E,4 E,,4 |A,,8 |]
w:cure Born with-out_ sin__ from guilt se-cure. 
     %End of file